libs/icons/src/svg/layout-grid.svg

<svg width="16" height="16" viewBox="0 0 16 16" fill="none" xmlns="http://www.w3.org/2000/svg">
<path fill-rule="evenodd" clip-rule="evenodd" d="M2.2 5.8V2.2H5.8V5.8H2.2ZM6 1H2C1.44772 1 1 1.44772 1 2V6C1 6.55228 1.44772 7 2 7H6C6.55228 7 7 6.55228 7 6V2C7 1.44772 6.55228 1 6 1ZM2.2 13.8V10.2H5.8V13.8H2.2ZM6 9H2C1.44772 9 1 9.44772 1 10V14C1 14.5523 1.44772 15 2 15H6C6.55228 15 7 14.5523 7 14V10C7 9.44772 6.55228 9 6 9ZM10.2 2.2V5.8H13.8V2.2H10.2ZM10 1H14C14.5523 1 15 1.44772 15 2V6C15 6.55228 14.5523 7 14 7H10C9.44772 7 9 6.55228 9 6V2C9 1.44772 9.44772 1 10 1ZM10.2 13.8V10.2H13.8V13.8H10.2ZM14 9H10C9.44772 9 9 9.44772 9 10V14C9 14.5523 9.44772 15 10 15H14C14.5523 15 15 14.5523 15 14V10C15 9.44772 14.5523 9 14 9Z" fill="#202327"/>
</svg>

<svg xmlns="http://www.w3.org/2000/svg" viewBox="0 0 16 16" class="sageicon"><path fill-rule="evenodd" d="M2.2 5.8V2.2h3.6v3.6H2.2ZM6 1H2a1 1 0 0 0-1 1v4a1 1 0 0 0 1 1h4a1 1 0 0 0 1-1V2a1 1 0 0 0-1-1ZM2.2 13.8v-3.6h3.6v3.6H2.2ZM6 9H2a1 1 0 0 0-1 1v4a1 1 0 0 0 1 1h4a1 1 0 0 0 1-1v-4a1 1 0 0 0-1-1Zm4.2-6.8v3.6h3.6V2.2h-3.6ZM10 1h4a1 1 0 0 1 1 1v4a1 1 0 0 1-1 1h-4a1 1 0 0 1-1-1V2a1 1 0 0 1 1-1Zm.2 12.8v-3.6h3.6v3.6h-3.6ZM14 9h-4a1 1 0 0 0-1 1v4a1 1 0 0 0 1 1h4a1 1 0 0 0 1-1v-4a1 1 0 0 0-1-1Z"/></svg>
